icons/world_care.svg

<svg width="48" height="48" viewBox="0 0 48 48" fill="none" xmlns="http://www.w3.org/2000/svg">
<path fill-rule="evenodd" clip-rule="evenodd" d="M23.952 25.9997C23.968 25.9999 23.984 26 24 26L24.012 26L24.032 26C29.5548 26 34.032 21.5228 34.032 16C34.032 10.4772 29.5548 6 24.032 6L24.012 6.00002L24 6C23.984 6 23.968 6.0001 23.952 6.00031C18.466 6.04328 14.032 10.5038 14.032 16C14.032 21.4962 18.466 25.9567 23.952 25.9997ZM31.9701 17H29.9704C29.916 17.9135 29.7878 18.7909 29.5959 19.6154H31.1704C31.578 18.8122 31.854 17.9309 31.9701 17ZM29.7301 21.6154H28.9654C28.8176 21.9778 28.6558 22.3233 28.4814 22.6495C28.9322 22.3473 29.3505 22.0005 29.7301 21.6154ZM27.5333 19.6154C27.7514 18.818 27.9028 17.9389 27.9664 17H25.032V19.6154H27.5333ZM25.032 21.6154H26.7657C26.6889 21.7634 26.6095 21.9058 26.5277 22.0421C26.0288 22.8735 25.5106 23.3868 25.032 23.6781V21.6154ZM23.032 19.6154V17H20.0336C20.0972 17.9389 20.2486 18.818 20.4667 19.6154H23.032ZM21.2344 21.6154H23.032V23.7159C22.5359 23.4321 21.9935 22.9107 21.4724 22.0421C21.3906 21.9058 21.3112 21.7634 21.2344 21.6154ZM18.4041 19.6154C18.2123 18.7909 18.0841 17.9135 18.0296 17H16.0939C16.21 17.9309 16.486 18.8122 16.8936 19.6154H18.4041ZM18.3339 21.6154H19.0346C19.1722 21.9527 19.3218 22.2752 19.4825 22.5813C19.0698 22.2955 18.6853 21.9718 18.3339 21.6154ZM29.9704 15C29.916 14.0865 29.7878 13.2091 29.5959 12.3846H31.1704C31.578 13.1878 31.854 14.0691 31.9701 15H29.9704ZM29.7301 10.3846H28.9654C28.8176 10.0222 28.6558 9.67675 28.4814 9.35049C28.9322 9.6527 29.3505 9.99952 29.7301 10.3846ZM25.032 10.3846H26.7657C26.6889 10.2366 26.6095 10.0942 26.5277 9.95792C26.0288 9.1265 25.5106 8.61316 25.032 8.32189V10.3846ZM27.5333 12.3846H25.032V15H27.9664C27.9028 14.0611 27.7514 13.182 27.5333 12.3846ZM23.032 8.28413V10.3846H21.2344C21.3112 10.2366 21.3906 10.0942 21.4724 9.95792C21.9935 9.08932 22.5359 8.56788 23.032 8.28413ZM23.032 12.3846H20.4667C20.2486 13.182 20.0972 14.0611 20.0336 15H23.032V12.3846ZM19.4825 9.4187C19.3218 9.72478 19.1722 10.0473 19.0346 10.3846H18.334C18.6853 10.0282 19.0698 9.70453 19.4825 9.4187ZM18.4041 12.3846H16.8936C16.486 13.1878 16.21 14.0691 16.0939 15H18.0296C18.0841 14.0865 18.2123 13.2091 18.4041 12.3846Z" fill="black"/>
<path fill-rule="evenodd" clip-rule="evenodd" d="M8.72993 17.0007C7.69166 16.9761 6.6509 17.6133 6.31292 18.6051C6.22856 18.8527 6.18205 19.1767 6.14993 19.4723C6.11495 19.7944 6.08786 20.1806 6.06684 20.6022C6.02473 21.4468 6.00506 22.4743 6.00087 23.496C5.9926 25.5136 6.04438 27.6139 6.11744 28.2649C6.24538 29.405 6.90096 30.467 7.47134 31.391L7.53486 31.4939C7.70785 31.7746 7.87915 32.0526 8.04708 32.3402C8.80081 33.6314 9.62116 34.5013 10.3643 35.2894L10.3811 35.3073C10.7987 35.7501 11.1856 36.1616 11.5516 36.6209C11.2098 36.9797 11 37.4654 11 38V40C11 41.1046 11.8954 42 13 42H21C22.1046 42 23 41.1046 23 40V38C23 36.9426 22.1794 36.0768 21.1402 36.0048C21.0049 34.869 20.8298 33.3348 20.8138 32.8979C20.7999 32.5222 20.6739 32.1549 20.5565 31.8758C20.4314 31.5785 20.275 31.287 20.1301 31.0398C19.9838 30.79 19.8398 30.5694 19.733 30.4118C19.6793 30.3326 19.6342 30.2682 19.6019 30.2227C19.5858 30.1999 19.5727 30.1819 19.5634 30.169L19.5522 30.1535L19.5488 30.1488L19.547 30.1464L19.5363 30.1319L16.2933 26.0424L16.2638 26.0113L16.263 26.0105L16.2587 26.0058L16.2353 25.9805C16.2139 25.957 16.1811 25.9206 16.1395 25.8731C16.0561 25.7779 15.9384 25.6391 15.8057 25.4698C15.5348 25.1241 15.2253 24.6815 15.0093 24.2393C14.7811 23.7723 14.3495 23.3229 13.6864 23.2894C13.1206 23.2607 12.6781 23.5604 12.4197 23.7913C12.2828 23.9135 12.1528 24.0562 12.0334 24.2129C12.0181 24.0195 12.0031 23.8186 11.9876 23.6107L11.9827 23.5455C11.8846 22.2267 11.7659 20.6319 11.3786 19.3554C10.9251 17.8606 9.91635 17.0288 8.72993 17.0007ZM18.7417 30.7393L19.547 30.1464C19.5469 30.1463 19.5468 30.1462 18.7417 30.7393ZM19.1255 36C18.9954 34.9004 18.8332 33.463 18.8151 32.9713C18.8147 32.9676 18.8118 32.9398 18.7963 32.8835C18.7792 32.8218 18.752 32.7441 18.713 32.6513C18.6342 32.464 18.5243 32.2553 18.4045 32.0508C18.2863 31.849 18.1674 31.6666 18.0775 31.5341C18.0329 31.4682 17.9962 31.4158 17.9713 31.3807L17.9451 31.3442L14.7775 27.3498L14.7588 27.3295C14.7287 27.2965 14.6865 27.2497 14.6349 27.1908C14.532 27.0733 14.3905 26.9063 14.2315 26.7035C14.0078 26.418 13.7374 26.0463 13.4906 25.6306L13.4842 25.6423C13.3937 25.8086 13.344 25.9612 13.3286 26.0612C13.2741 26.416 13.3023 26.6599 13.3301 26.7922C13.3442 26.8595 13.3589 26.901 13.3648 26.9164L13.3659 26.9192L15.197 30.5569L13.4958 31.5957L13.4714 31.5623L13.402 31.4668C13.342 31.3841 13.2558 31.265 13.1503 31.1185C12.9394 30.8257 12.6511 30.4226 12.3417 29.9823C11.7347 29.1182 11.0091 28.0581 10.6508 27.4227C10.3827 26.9472 10.2586 26.3178 10.1796 25.7492C10.0971 25.155 10.0457 24.4652 9.99475 23.7812L9.99311 23.7593C9.88897 22.3612 9.78094 20.9783 9.46476 19.936C9.32661 19.4806 9.14891 19.2516 9.02071 19.1407C8.89848 19.0349 8.78384 19.0025 8.68251 19.0001C8.40972 18.9937 8.22887 19.1835 8.20588 19.2509C8.20414 19.2573 8.19484 19.2915 8.18191 19.3654C8.16762 19.4471 8.15279 19.5544 8.13823 19.6884C8.10911 19.9564 8.08439 20.2999 8.06436 20.7018C8.02437 21.5039 8.00498 22.4978 8.00085 23.5042C7.99249 25.543 8.04706 27.5259 8.10496 28.0419C8.17737 28.6871 8.57856 29.3757 9.23739 30.4445L9.23999 30.4487C9.41045 30.7252 9.59333 31.0219 9.77431 31.3319C10.4069 32.4155 11.0894 33.1432 11.8362 33.9352L11.8526 33.9526C12.4094 34.543 13.0129 35.183 13.583 36H19.1255ZM13.8001 25.2459C13.8001 25.2455 13.7964 25.2474 13.7889 25.2527C13.7963 25.2489 13.8001 25.2462 13.8001 25.2459ZM21 40V38H13V40H21Z" fill="black"/>
<path fill-rule="evenodd" clip-rule="evenodd" d="M41.6871 18.6051C41.3491 17.6133 40.3084 16.9761 39.2701 17.0007C38.0837 17.0288 37.0749 17.8606 36.6214 19.3554C36.2342 20.6319 36.1155 22.2266 36.0173 23.5454L36.0124 23.6107C35.997 23.8186 35.982 24.0195 35.9667 24.2129C35.8472 24.0562 35.7172 23.9135 35.5804 23.7913C35.322 23.5604 34.8794 23.2607 34.3137 23.2894C33.6505 23.3229 33.219 23.7723 32.9908 24.2393C32.7747 24.6815 32.4652 25.1241 32.1944 25.4698C32.0617 25.6391 31.944 25.7779 31.8605 25.8731C31.819 25.9206 31.7862 25.957 31.7647 25.9805L31.7414 26.0058L31.737 26.0105L31.7362 26.0113L31.7068 26.0424L28.4638 30.1319L28.453 30.1464L28.4513 30.1488L28.4478 30.1535L28.4366 30.169C28.4273 30.1819 28.4143 30.1999 28.3981 30.2227C28.3658 30.2682 28.3208 30.3326 28.267 30.4118C28.1602 30.5694 28.0163 30.79 27.8699 31.0398C27.7251 31.287 27.5686 31.5785 27.4435 31.8758C27.3261 32.1549 27.2001 32.5222 27.1863 32.8979C27.1702 33.3348 26.9951 34.869 26.8598 36.0048C25.8207 36.0768 25 36.9426 25 38V40C25 41.1046 25.8955 42 27 42H35C36.1046 42 37 41.1046 37 40V38C37 37.4654 36.7902 36.9797 36.4485 36.6209C36.8145 36.1616 37.2013 35.7501 37.6189 35.3073L37.6358 35.2894C38.3789 34.5013 39.1992 33.6313 39.953 32.3402C40.1209 32.0526 40.2922 31.7746 40.4652 31.4939L40.5287 31.391C41.0991 30.467 41.7547 29.405 41.8826 28.2649C41.9557 27.6139 42.0074 25.5136 41.9992 23.496C41.995 22.4743 41.9753 21.4468 41.9332 20.6022C41.9122 20.1806 41.8851 19.7944 41.8501 19.4723C41.818 19.1767 41.7715 18.8527 41.6871 18.6051ZM29.2584 30.7393C28.4532 30.1462 28.4531 30.1463 28.453 30.1464L29.2584 30.7393ZM34.4171 36C34.9872 35.183 35.5906 34.543 36.1474 33.9526L36.1638 33.9352C36.9106 33.1432 37.5931 32.4155 38.2257 31.3319C38.4066 31.0221 38.5893 30.7257 38.7597 30.4493L38.7626 30.4445C39.4215 29.3757 39.8227 28.6871 39.8951 28.0419C39.953 27.5259 40.0075 25.543 39.9992 23.5042C39.9951 22.4978 39.9757 21.5039 39.9357 20.7018C39.9156 20.2999 39.8909 19.9564 39.8618 19.6884C39.8472 19.5544 39.8324 19.4471 39.8181 19.3654C39.8052 19.2915 39.7959 19.2573 39.7942 19.2509C39.7712 19.1835 39.5903 18.9937 39.3175 19.0001C39.2162 19.0025 39.1016 19.0349 38.9793 19.1407C38.8511 19.2516 38.6734 19.4806 38.5353 19.936C38.2191 20.9783 38.1111 22.3612 38.0069 23.7593L38.0053 23.7812C37.9543 24.4652 37.903 25.155 37.8204 25.7492C37.7415 26.3178 37.6173 26.9472 37.3492 27.4227C36.991 28.0581 36.2654 29.1182 35.6583 29.9823C35.3489 30.4226 35.0606 30.8257 34.8498 31.1185C34.7443 31.265 34.658 31.3841 34.598 31.4668L34.5286 31.5623L34.5042 31.5957L32.803 30.5569L34.6341 26.9192L34.6353 26.9164C34.6412 26.901 34.6558 26.8595 34.6699 26.7922C34.6977 26.6599 34.7259 26.416 34.6714 26.0612C34.6561 25.9612 34.6063 25.8086 34.5158 25.6423L34.5094 25.6306C34.2626 26.0463 33.9922 26.418 33.7685 26.7035C33.6096 26.9063 33.468 27.0733 33.3651 27.1908C33.3136 27.2497 33.2714 27.2965 33.2412 27.3295L33.2225 27.3498L30.0549 31.3442L30.0288 31.3807C30.0039 31.4158 29.9671 31.4682 29.9225 31.5341C29.8326 31.6666 29.7138 31.849 29.5955 32.0508C29.4758 32.2553 29.3658 32.464 29.2871 32.6513C29.248 32.7441 29.2208 32.8218 29.2038 32.8835C29.1882 32.9398 29.1854 32.9676 29.185 32.9713C29.1669 33.463 29.0046 34.9004 28.8745 36H34.4171ZM34.1999 25.2459C34.1999 25.2455 34.2036 25.2474 34.2111 25.2527C34.2037 25.2489 34.2 25.2462 34.1999 25.2459ZM27 40V38H35V40H27Z" fill="black"/>
</svg>

<svg
  xmlns="http://www.w3.org/2000/svg"
  width="24"
  height="24"
  viewBox="0 0 24 24"
  fill="none"
  stroke="currentColor"
  stroke-width="2"
  stroke-linecap="round"
  stroke-linejoin="round"
>
  <path
    fill-rule="evenodd"
    d="M23.952 26h.08c5.523 0 10-4.477 10-10s-4.477-10-10-10h-.08c-5.486.043-9.92 4.504-9.92 10s4.434 9.957 9.92 10m8.018-9h-2c-.054.913-.182 1.79-.374 2.615h1.574a8 8 0 0 0 .8-2.615m-2.24 4.615h-.765q-.222.544-.484 1.035a8 8 0 0 0 1.25-1.035m-2.197-2c.218-.797.37-1.676.433-2.615h-2.934v2.615zm-2.501 2h1.734q-.115.222-.238.427c-.5.831-1.017 1.345-1.496 1.636zm-2-2V17h-2.998c.063.939.215 1.818.433 2.615zm-1.798 2h1.798v2.1c-.496-.283-1.038-.804-1.56-1.673a8 8 0 0 1-.238-.427m-2.83-2A15.7 15.7 0 0 1 18.03 17h-1.936c.116.93.392 1.812.8 2.615zm-.07 2h.7q.207.507.449.966a8 8 0 0 1-1.15-.966M29.97 15a15.7 15.7 0 0 0-.374-2.615h1.574c.408.803.684 1.684.8 2.615zm-.24-4.615h-.765q-.222-.544-.484-1.035.678.456 1.25 1.035m-4.698 0h1.734a8 8 0 0 0-.238-.427c-.5-.832-1.017-1.345-1.496-1.636zm2.501 2h-2.501V15h2.934a13.4 13.4 0 0 0-.433-2.615m-4.501-4.1v2.1h-1.798q.116-.222.238-.427c.521-.869 1.064-1.39 1.56-1.674m0 4.1h-2.565c-.218.797-.37 1.676-.433 2.615h2.998zm-3.55-2.966q-.24.459-.447.966h-.701q.528-.536 1.149-.966m-1.078 2.966h-1.51a8 8 0 0 0-.8 2.615h1.936c.054-.914.182-1.79.374-2.615"
    clip-rule="evenodd"
  />
  <path
    fill-rule="evenodd"
    d="M8.73 17c-1.038-.024-2.08.613-2.417 1.605-.084.248-.13.572-.163.867-.035.322-.062.709-.083 1.13A67 67 0 0 0 6 23.496c-.008 2.018.043 4.118.116 4.769.128 1.14.784 2.202 1.354 3.126l.064.103c.173.28.344.559.512.846.754 1.291 1.574 2.161 2.317 2.95l.017.017c.418.443.805.855 1.17 1.314A2 2 0 0 0 11 38v2a2 2 0 0 0 2 2h8a2 2 0 0 0 2-2v-2a2 2 0 0 0-1.86-1.995c-.135-1.136-.31-2.67-.326-3.107-.014-.376-.14-.743-.258-1.022a7 7 0 0 0-.426-.836 12 12 0 0 0-.528-.817l-.039-.054-.01-.015-.004-.005-.002-.003-.01-.014-3.244-4.09-.03-.03v-.002l-.004-.004-.024-.026-.095-.107a10 10 0 0 1-.334-.403 7.3 7.3 0 0 1-.797-1.23c-.228-.468-.66-.917-1.323-.95-.565-.03-1.008.27-1.266.501a3 3 0 0 0-.387.422l-.045-.602-.005-.066c-.098-1.318-.217-2.913-.604-4.19-.454-1.494-1.463-2.326-2.65-2.354m10.012 13.74.805-.594zm.383 5.26c-.13-1.1-.292-2.537-.31-3.029 0-.003-.003-.031-.019-.087a2 2 0 0 0-.083-.233 5 5 0 0 0-.309-.6 9 9 0 0 0-.433-.67l-.026-.037-3.168-3.994-.018-.02-.124-.14a12 12 0 0 1-.403-.487 10 10 0 0 1-.741-1.072l-.007.011c-.09.167-.14.32-.155.42-.055.354-.027.598.001.73a1 1 0 0 0 .035.124v.003l1.832 3.638-1.701 1.039-.025-.034-.069-.095a123 123 0 0 1-1.06-1.485c-.607-.864-1.333-1.924-1.691-2.56-.268-.475-.392-1.104-.471-1.673a33 33 0 0 1-.185-1.968l-.002-.022c-.104-1.398-.212-2.78-.528-3.823-.138-.455-.316-.684-.444-.795a.52.52 0 0 0-.338-.14c-.273-.007-.454.182-.477.25-.002.006-.011.04-.024.114a5 5 0 0 0-.044.323c-.029.268-.054.612-.074 1.014a65 65 0 0 0-.063 2.802c-.009 2.039.046 4.022.104 4.538.072.645.474 1.334 1.132 2.403l.003.004c.17.276.353.573.534.883.633 1.084 1.315 1.811 2.062 2.603l.017.018c.556.59 1.16 1.23 1.73 2.047zM13.8 25.246q0-.001-.011.007zM21 40v-2h-8v2z"
    clip-rule="evenodd"
  />
  <path
    fill-rule="evenodd"
    d="M41.687 18.605c-.338-.992-1.379-1.629-2.417-1.604-1.186.028-2.195.86-2.649 2.354-.387 1.277-.506 2.872-.604 4.19l-.005.066-.045.602q-.18-.237-.387-.422c-.258-.23-.7-.53-1.266-.502-.663.034-1.095.483-1.323.95a7.3 7.3 0 0 1-.797 1.23 10 10 0 0 1-.43.511l-.023.026-.004.005-.03.031-3.243 4.09-.011.014-.002.003-.003.005-.011.015q-.015.019-.039.054a11 11 0 0 0-.528.817 7 7 0 0 0-.427.836c-.117.279-.243.646-.257 1.022-.016.437-.19 1.971-.326 3.107A2 2 0 0 0 25 38v2a2 2 0 0 0 2 2h8a2 2 0 0 0 2-2v-2c0-.535-.21-1.02-.551-1.38.366-.458.752-.87 1.17-1.313l.017-.018c.743-.788 1.563-1.658 2.317-2.949.168-.287.34-.565.512-.846l.064-.103c.57-.924 1.226-1.986 1.354-3.126.073-.651.124-2.751.116-4.769a67 67 0 0 0-.066-2.894 20 20 0 0 0-.083-1.13c-.032-.295-.078-.62-.163-.867M29.258 30.74l-.805-.593zM34.418 36c.57-.817 1.173-1.457 1.73-2.047l.016-.018c.747-.792 1.43-1.52 2.062-2.603.18-.31.363-.606.534-.883l.003-.005c.659-1.068 1.06-1.757 1.132-2.402.058-.516.112-2.499.104-4.538-.004-1.006-.023-2-.063-2.802-.02-.402-.045-.746-.074-1.014a5 5 0 0 0-.044-.323c-.013-.073-.022-.108-.024-.114-.023-.068-.204-.257-.476-.25a.52.52 0 0 0-.339.14c-.128.11-.306.34-.444.795-.316 1.042-.424 2.425-.528 3.823l-.002.022c-.05.684-.102 1.374-.185 1.968-.078.569-.203 1.198-.47 1.674-.359.635-1.085 1.695-1.692 2.56a124 124 0 0 1-1.06 1.484l-.07.095-.024.034-1.701-1.04 1.831-3.637.001-.003a1 1 0 0 0 .035-.124c.028-.132.056-.376.001-.73a1.4 1.4 0 0 0-.155-.42l-.007-.011c-.246.415-.517.787-.74 1.072a12 12 0 0 1-.528.627l-.019.02-3.167 3.994-.026.037-.107.153c-.09.133-.208.315-.326.517-.12.204-.23.413-.309.6q-.058.14-.083.232c-.016.057-.019.085-.019.088-.018.492-.18 1.93-.31 3.029zM34.2 25.246q0-.001.011.007zM27 40v-2h8v2z"
    clip-rule="evenodd"
  />
</svg>
